X: 34581
T: Rising Sun, The
R: reel
M: 4/4
K: Dmajor
F2 AF DFAF|G2 BG DGBD|ceAc eAce|dcde fdAG|
F2 AF DFAF|GB ~B2 dBGB|Acef gecd|eddc d:|
a2 fd Adfd|Adfd edcd|~e3 f gfga|be ~e2 bege|
a2 fd Adfd|Adfd edBA|FA ~A2 GBdB|AFGE D2:|

